packages/sources/icons/src/vitamix/insurance.svg

<svg width="24" height="24" viewBox="0 0 24 24" fill="none" xmlns="http://www.w3.org/2000/svg">
<path fill-rule="evenodd" clip-rule="evenodd" d="M12.7378 18.75L14.1576 10.9408C13.4323 10.6458 12.7144 10.5 12.0001 10.5C11.2857 10.5 10.5678 10.6458 9.8425 10.9408L11.2624 18.75H12.7378ZM14.3044 18.5182L18.9194 11.0189C18.346 10.6688 17.7923 10.5 17.25 10.5C16.7385 10.5 16.217 10.6501 15.6785 10.9608L14.3044 18.5182ZM9.69562 18.5182L8.32154 10.9608C7.78298 10.6501 7.26148 10.5 6.75005 10.5C6.2077 10.5 5.65401 10.6688 5.08066 11.0189L9.69562 18.5182ZM19.4455 9.59119C18.9969 5.87764 15.8345 3 12 3C8.16546 3 5.00304 5.87764 4.55448 9.59119C5.27314 9.20007 6.00699 9 6.74998 9C7.52844 9 8.29686 9.21963 9.0483 9.64851C10.0241 9.21764 11.0096 9 12 9C12.9903 9 13.9758 9.21764 14.9517 9.64851C15.7031 9.21963 16.4715 9 17.25 9C17.993 9 18.7268 9.20007 19.4455 9.59119ZM15 20.25V21.75C15 22.1642 14.6642 22.5 14.25 22.5H9.75C9.33579 22.5 9 22.1642 9 21.75V20.25L3 10.5C3 5.52944 7.02944 1.5 12 1.5C16.9706 1.5 21 5.52944 21 10.5L15 20.25ZM10.5 20.25V21H13.5V20.25H10.5Z" fill="#001018"/>
</svg>

<svg width="24" height="24" fill="none" xmlns="http://www.w3.org/2000/svg"><path fill-rule="evenodd" clip-rule="evenodd" d="m12.738 18.75 1.42-7.81A5.686 5.686 0 0 0 12 10.5a5.71 5.71 0 0 0-2.158.44l1.42 7.81h1.476zm1.566-.232 4.615-7.5c-.573-.35-1.127-.518-1.669-.518-.512 0-1.033.15-1.572.46l-1.374 7.558zm-4.608 0-1.374-7.557c-.539-.31-1.06-.461-1.572-.461-.542 0-1.096.169-1.67.519l4.616 7.5zm9.75-8.927a7.501 7.501 0 0 0-14.892 0C5.274 9.201 6.007 9 6.75 9c.778 0 1.547.22 2.298.649C10.024 9.218 11.01 9 12 9s1.976.218 2.952.649c.751-.43 1.52-.649 2.298-.649.743 0 1.477.2 2.195.591zM15 20.25v1.5a.75.75 0 0 1-.75.75h-4.5a.75.75 0 0 1-.75-.75v-1.5L3 10.5a9 9 0 0 1 18 0l-6 9.75zm-4.5 0V21h3v-.75h-3z" fill="#001018"/></svg>
